X:2014
T:Svingedans
T:(FMK M 107 bild 4a)
T:efter Per Henriksson, 
R:Svingedans
O:Sövestad, Skåne
B:Folkmusikkommissionen
Z:ABC-transkribering av Åke Persson
M:3/4
L:1/8
Q:1/4=108
K:G
D |: GA B2 dc | AF G2 G2 | g>ec>Bc>e | g>e d2 d2 :|
|: B>dg>fe>d  | cB A2 B2 | c>de>dc>B | AF G2 G2 :|
(:musicend:)

Detta är en tolkning. Den ursprungliga noten har 2/4-takt och inga förtecken och skriven enligt följande:

(:music:)
